www/assets/icons/free_cancellation.svg

<svg width="24" height="24" viewBox="0 0 24 24" xmlns="http://www.w3.org/2000/svg" fill='currentColor'><path d="M10.62 19.75H4.40997V9.75H18.41V14.13L20.41 12.13V5.75C20.41 4.65 19.51 3.75 18.41 3.75H17.41V1.75H15.41V3.75H7.40997V1.75H5.40997V3.75H4.40997C3.29997 3.75 2.41997 4.65 2.41997 5.75L2.40997 19.75C2.40997 20.85 3.29997 21.75 4.40997 21.75H12.62L10.62 19.75ZM15.95 22.25L12.41 18.71L13.82 17.3L15.94 19.42L20.18 15.18L21.59 16.59L15.95 22.25ZM9.81997 13.75L11.41 15.34L9.99997 16.75L8.40997 15.16L6.81997 16.75L5.40997 15.34L6.99997 13.75L5.40997 12.16L6.81997 10.75L8.40997 12.34L9.99997 10.75L11.41 12.16L9.81997 13.75Z"/></svg>

<svg xmlns="http://www.w3.org/2000/svg" width="24" height="24" viewBox="0 0 24 24" fill='currentColor'><path d="M10.62 19.75H4.41v-10h14v4.38l2-2V5.75c0-1.1-.9-2-2-2h-1v-2h-2v2h-8v-2h-2v2h-1c-1.11 0-1.99.9-1.99 2l-.01 14a2 2 0 0 0 2 2h8.21zm5.33 2.5-3.54-3.54 1.41-1.41 2.12 2.12 4.24-4.24 1.41 1.41zm-6.13-8.5 1.59 1.59L10 16.75l-1.59-1.59-1.59 1.59-1.41-1.41L7 13.75l-1.59-1.59 1.41-1.41 1.59 1.59L10 10.75l1.41 1.41z"/></svg>
